X: 185
T: The Foggy Dew
N:"Moderate" "1st Setting." "collected by F. O'Neill"
B:O'Neill's 185
Z:Transcribed by henrik.norbeck@mailbox.swipnet.se
M:2/4
L:1/8
K:Em
gf|ef ed|B2 (GB)|(AB) (AF)|D2 (EF)|
G2 (AG)|E2 E2|(E4|D2)"fine"||
B2|E2 E2|GA Bc|d2 (BA)|G2 A2|
B2 e2|d2 f2|e4-|e2"D.C.":|


